X: 6
T: Strike The Gay Harp
R: jig
M: 6/8
L: 1/8
K: Dmaj
d2B cBA|dAF FED|DdB cBA|dAF ~E3|
def Bcd|ABA F2 E|~D3 DEF|AFE EFA:|
dcd fdf|aba afe|def ~a3|bge edB|
Bdf ~a3|bgb a2g|fed dfe|dAF EFA:|
def dfe|dAF DFA|def dfe|dAF ~E3|
def Bcd|ABA F2 E|~D3 DEF|AFE EFA:|


Tune 1216	Setting 14511

